src/assets/images/star_off.svg

<svg width="16" height="16" viewBox="0 0 16 16" fill="none" xmlns="http://www.w3.org/2000/svg">
<path fill-rule="evenodd" clip-rule="evenodd" d="M7.98439 0.959992C7.85189 0.966867 7.73688 1.05437 7.69563 1.18062L6.08939 5.99998H0.945073V6.0006C0.806948 6.0006 0.684449 6.08935 0.641953 6.2206C0.598828 6.35185 0.645078 6.49561 0.755703 6.5781L4.93442 9.63379L3.32818 14.6213V14.6207C3.28506 14.7532 3.33256 14.8976 3.44506 14.9788C3.55756 15.0607 3.70943 15.0601 3.82131 14.9782L8.00003 11.9225L12.1788 14.9782C12.2906 15.0601 12.4425 15.0607 12.555 14.9788C12.6675 14.8976 12.715 14.7532 12.6719 14.6207L11.0656 9.63316L15.2444 6.57748V6.5781C15.355 6.49561 15.4012 6.35185 15.3581 6.2206C15.3156 6.08935 15.1931 6.0006 15.055 6.0006H9.91068L8.30444 1.18124V1.18062C8.26006 1.04374 8.1288 0.953112 7.98444 0.959992H7.98439ZM8.00001 2.29374L9.37564 6.41998V6.4206C9.41814 6.55185 9.54127 6.64122 9.68001 6.6406H14.0738L10.4987 9.255V9.25563C10.3875 9.33688 10.3406 9.48062 10.3831 9.61251L11.7587 13.8807L8.1893 11.2712H8.18867C8.07617 11.1887 7.92368 11.1887 7.81117 11.2712L4.24173 13.8807L5.61736 9.61251H5.61673C5.65923 9.48063 5.61236 9.33687 5.50111 9.25563L1.92607 6.64123H6.31983V6.6406C6.45858 6.64123 6.5817 6.55185 6.6242 6.4206L7.99983 2.29436L8.00001 2.29374Z" fill="#E9B200"/>
</svg>

<svg xmlns="http://www.w3.org/2000/svg" width="16" height="16" fill="none"><path fill="#E9B200" fill-rule="evenodd" d="M7.984.96a.321.321 0 0 0-.288.22L6.089 6H.945a.321.321 0 0 0-.19.577l4.18 3.057-1.607 4.987a.32.32 0 0 0 .493.357L8 11.922l4.179 3.056a.32.32 0 0 0 .493-.357l-1.606-4.988 4.178-3.056v.001a.321.321 0 0 0-.189-.577H9.911L8.304 1.18a.32.32 0 0 0-.32-.221ZM8 2.294 9.376 6.42a.316.316 0 0 0 .304.22h4.394l-3.575 2.615a.32.32 0 0 0-.116.358l1.376 4.268-3.57-2.61a.319.319 0 0 0-.378 0l-3.57 2.61 1.376-4.268a.32.32 0 0 0-.116-.357L1.926 6.64H6.32a.319.319 0 0 0 .304-.22L8 2.294Z" clip-rule="evenodd"/></svg>
